svgs/tuga.svg

<svg xmlns="http://www.w3.org/2000/svg" viewBox="0 0 192 192"><path d="M80.326 174.665c-9.332-1.905-20.953-7.624-28.144-13.851-13.051-11.301-17.691-23.945-17.691-48.211V96.354l-5.301-.861C22.529 94.411 16 87.984 16 82.509c0-5.474 7.373-11.804 13.749-11.804h4.742v-8.804c0-14.623 6.837-22.099 18.229-19.932 7.818 1.487 10.085 5.022 10.997 17.153l.821 10.916 18.701.374c17.344.346 18.992.607 22.728 3.605 3.038 2.438 4.027 4.532 4.027 8.524 0 11.615-3.998 13.516-28.43 13.516H63.768v16.721c0 12.074.662 18.095 2.384 21.664 5.398 11.187 15.513 16.246 32.57 16.291 13.73.036 18.141 1.431 21.312 6.74 3.268 5.473 1.788 10.972-4.108 15.269-4.167 3.036-5.879 3.358-17.221 3.237-6.927-.074-15.198-.665-18.379-1.314Zm54.662-97.622c-.869-.917-2.353-4.176-3.3-7.241-2.065-6.69-8.503-11.782-17.526-13.862-9.691-2.234-11.058-3.135-11.577-7.63-.687-5.946 3.496-7.574 14.417-5.611 15.786 2.838 29.974 16.271 29.974 28.381 0 3.448-.87 5.272-2.981 6.25-3.974 1.842-7.086 1.743-9.007-.287Zm29.181-2.124c-1.638-1.418-3.231-5.33-3.767-9.249-2.35-17.178-20.686-32.765-41.933-35.645-11.932-1.618-13.044-2.036-13.975-5.248-1.655-5.709 1.65-8.777 9.455-8.777 8.304 0 23.2 4.143 31.804 8.847 15.537 8.493 27.859 24.772 29.809 39.384.876 6.558.586 7.899-2.234 10.341-3.974 3.441-5.519 3.499-9.159.347Z"/></svg>

<svg
    xmlns="http://www.w3.org/2000/svg"
    viewBox="0 0 192 192"
    id="vector">
    <g id="group">
        <path
            id="path_6"
            d="M 80.326 174.665 C 70.994 172.76 59.373 167.041 52.182 160.814 C 39.131 149.513 34.491 136.869 34.491 112.603 L 34.491 96.354 L 29.19 95.493 C 22.529 94.411 16 87.984 16 82.509 C 16 77.035 23.373 70.705 29.749 70.705 L 34.491 70.705 L 34.491 61.901 C 34.491 47.278 41.328 39.802 52.72 41.969 C 60.538 43.456 62.805 46.991 63.717 59.122 L 64.538 70.038 L 83.239 70.412 C 100.583 70.758 102.231 71.019 105.967 74.017 C 109.005 76.455 109.994 78.549 109.994 82.541 C 109.994 94.156 105.996 96.057 81.564 96.057 L 63.768 96.057 L 63.768 112.778 C 63.768 124.852 64.43 130.873 66.152 134.442 C 71.55 145.629 81.665 150.688 98.722 150.733 C 112.452 150.769 116.863 152.164 120.034 157.473 C 123.302 162.946 121.822 168.445 115.926 172.742 C 111.759 175.778 110.047 176.1 98.705 175.979 C 91.778 175.905 83.507 175.314 80.326 174.665 Z M 134.988 77.043 C 134.119 76.126 132.635 72.867 131.688 69.802 C 129.623 63.112 123.185 58.02 114.162 55.94 C 104.471 53.706 103.104 52.805 102.585 48.31 C 101.898 42.364 106.081 40.736 117.002 42.699 C 132.788 45.537 146.976 58.97 146.976 71.08 C 146.976 74.528 146.106 76.352 143.995 77.33 C 140.021 79.172 136.909 79.073 134.988 77.043 Z M 164.169 74.919 C 162.531 73.501 160.938 69.589 160.402 65.67 C 158.052 48.492 139.716 32.905 118.469 30.025 C 106.537 28.407 105.425 27.989 104.494 24.777 C 102.839 19.068 106.144 16 113.949 16 C 122.253 16 137.149 20.143 145.753 24.847 C 161.29 33.34 173.612 49.619 175.562 64.231 C 176.438 70.789 176.148 72.13 173.328 74.572 C 169.354 78.013 167.809 78.071 164.169 74.919 Z"
            fill="#000000"
            stroke-width="12"/>
    </g>
</svg>
